X:1
T:Stand Like the Brave
T:William Bradbury & Philip Phillips
T:Stand Like the Brave
T:Public Domain
T:Public Domain
C:William Bradbury & Philip Phillips
Z:Public Domain
%%score ( 1 2 ) ( 3 4 )
L:1/8
M:3/4
K:G
V:1 treble 
V:2 treble 
V:3 bass 
V:4 bass 
V:1
 [B,D]2 | [B,D]2 [G,B,]2 [B,D]2 | [DG]4 [B,G][CA] | [DB]2 [DG]2 [DA]2 | [DB]4 [DB]2 | %5
w: 1.~O|Chris- tian, a-|wake! ’tis the|Mas- ter’s com-|mand; With|
w: 2.~The|cause of thy|Mas- ter with|vi- gor de-|fend; Be|
w: 3.~Press|on, ne- ver|doubt- ing, thy|Cap- tain is|near, With|
 [DA]2 [DA]2 [DA]2 | [Fd]4 [DF][DG] | [DA]2 [DG]2 [^CE]2 | D4 [B,D]2 | [CE]2 [CE]2 [DF]2 | %10
w: hel- met and|shield, and a|sword in thy|hand, To|the bold tempt-|
w: watch- ful, be|zeal- ous, and|fight to the|end; Wher-|r He leads|
w: grace to sup-|ply, and with|com- fort to|cheer; His|like a stream|
 [DG]2 [B,D]2 [DG]2 | [DB]2 [DG]2 [DB]2 | [DA]4 [DB]2 | [Ec]4 [Ec]>[Ec] | [DB]4 [DA][^CG] | %15
w: er, go, fear-|less- ly go,|Then stand|like the brave,|with thy face|
w: thee, go, val-|iant- ly go,|Then stand|like the brave,|with thy face|
w: in the de-|sert will flow;|Then stand|like the brave,|with thy face|
 [Dd]2 [DF]2 [DA]2 | [DG]6 ||"^Refrain" D4 B,>D | G6 | [DG]4 [B,D]>[DG] | [GB]6 | %21
w: to the foe.||||||
w: to the foe.|Stand|like the brave,|brave,|like the brave,|with|
w: to the foe.||||||
 [Dd]4 [DB]>[=FG] | [Ec]4 [EB][EA] | [DG]2 [DB]2 [CA]2 | [B,G]4 |] %25
w: ||||
w: thy face to|the foe. *|||
w: ||||
V:2
 x2 | x6 | x6 | x6 | x6 | x6 | x6 | x6 | D4 x2 | x6 | x6 | x6 | x6 | x6 | x6 | x6 | x6 || D4 B,>D | %18
w: ||||||||meet||||||||||
w: ||||||||ev-|||||||||stand like the|
w: ||||||||love||||||||||
 G6 | x6 | x6 | x6 | x6 | x6 | x4 |] %25
w: |||||||
w: Stand|||||||
w: |||||||
V:3
 [G,,G,]2 | [G,,G,]2 [G,,D,]2 G,2 | [G,B,]4 G,G, | G,2 [B,,G,]2 [D,F,]2 | [G,,G,]4 G,2 | %5
 [D,F,]2 [D,F,]2 [D,F,]2 | [B,,B,]4 [B,,D,][B,,E,] | [A,,F,]2 [A,,E,]2 [A,,G,]2 | %8
 [D,F,]4 [G,,G,]2 | [C,G,]2 [C,G,]2 [C,A,]2 | [C,G,]2 [G,,G,]2 [G,B,]2 | G,2 [G,B,]2 G,2 | %12
 [D,F,]4 G,2 | [C,G,]4 [C,G,]>[C,G,] | G,4 [F,A,]E, | [D,F,]2 [D,A,]2 [D,C]2 | [G,,B,]6 || %17
 D,4 B,,>D, | G,6 | [G,B,]4 G,>[G,B,] | [G,D]6 | [G,B,]4 [G,B,]>G, | [C,G,]4 [C,D][C,C] | %23
 [D,B,]2 [D,G,]2 [D,F,]2 | [G,,G,]4 |] %25
V:4
 x2 | x4 G,2 | x4 G,G, | G,2 x4 | x4 G,2 | x6 | x6 | x6 | x6 | x6 | x6 | G,2 G,2 x2 | x4 G,2 | x6 | %14
 G,4 E, x | x6 | x6 || D,4 B,,>D, | G,6 | x4 G,3/2 x/ | x6 | x11/2 G,/ | x6 | x6 | x4 |] %25

